source/img/step-one.svg

<svg width="71" height="227" fill="none" xmlns="http://www.w3.org/2000/svg"><path d="M40.3722 227V39.4c-.1867.1867-2.3333.7467-6.44 1.68-3.92.9333-8.4 1.8667-13.44 2.8-5.04.9333-9.52 1.7733-13.44001 2.52-3.92.7467-5.97334 1.12-6.16 1.12V24.84c3.17333-.7467 6.81333-1.7733 10.92001-3.08 4.2933-1.3067 8.5867-2.8933 12.88-4.76 4.48-1.8667 8.68-4.2 12.6-7.00001 4.1067-2.8 7.56-6.06667 10.36-9.8h22.68V227h-29.96z" fill="#F2F2F2"/></svg>

<svg width="71" height="227" viewBox="0 0 71 227" fill="none" xmlns="http://www.w3.org/2000/svg">
<path d="M40.3722 227V39.4C40.1855 39.5867 38.0389 40.1467 33.9322 41.08C30.0122 42.0133 25.5322 42.9467 20.4922 43.88C15.4522 44.8133 10.9722 45.6533 7.05219 46.4C3.13219 47.1467 1.07885 47.52 0.892188 47.52V24.84C4.06552 24.0933 7.70552 23.0667 11.8122 21.76C16.1055 20.4533 20.3989 18.8667 24.6922 17C29.1722 15.1333 33.3722 12.8 37.2922 9.99999C41.3989 7.19999 44.8522 3.93332 47.6522 0.199983H70.3322V227H40.3722Z" fill="#F2F2F2"/>
</svg>
